!!!SOCIAL_FUNCTION:	miscellaneous songs
!!!PDT:	1957
!!!OTL: No_19_Mother's_Song_to_a_Baby.krn
!!!LING_GROUP: Keresan
!!!LANG: Tone
!!!REG: Southwest
**kern
*staff1
=1-
*clefF4
*k[b-e-a-d-g-]
*M2/4
8A-\L
8F\J
4F\
=2
8A-\L
8F\J
4F\
=3
4F\
4F\
=4
*M3/4
4F\
4F\
4d-\
=5!|:
*M2/4
4f\
4f\
=6
8f\L
8c\J
4c\
=7
4d-\
8d-\L
8B-\J
=8
8B-\L
8F\J
4F\
=9
4F\
4F\
=10
4B-\
8B-\L
8F\J
=11
*M3/4
4F\
4F\
4F\
=12
*M2/4
4D-\
4F\
=13
8G-\L
8F\J
4F\
=14
4F\
4F\
=15
4r
4F\
=16
8G-\L
8F\J
4F\
=17
4F\
4F\
=18
4D-\
4F\
=19
8d-\L
8B-\J
8B-\L
8F\J
=20
8B-\L
8F\J
4F\
=21
4F\
4r
=22
4F\
4F\
=23
*M3/4
4F\
4.F\
8F\
=24
4.B-\
8B-\
4F;\
=25
*M2/4
4F\
4F\
=26
4D-\
4F\
=27
4D-\
4F\
=28
8G-\L
8F\J
4F\
=29
4F\
4F\
=30
4D-\
4F\
=31
8B-\L
8A-\J
4B-\
=32
8B-\L
8F\J
4F\
=33
4F\
4r
=34
4F\
4F\
=35
4F\
4F\
=36
(8B-\L
8F\J)
4F\
=37
4F\
4F\
=38
4G-\
4G-\
=39
*M4/4
4G-\
4F\
4F\
4F\
=40
*M2/4
4F\
4F\
=41
=
*M3/4
2r
4d-\
=42:|!
*k[b-]
*M2/4
2r
=43!|:
4f\
4f\
=44
4a\
4a\
=45
8a\L
8g\J
8g\L
8f\J
=46
8g\L
8f\J
4f\
=47
8f\L
8d\J
8d\L
8c\J
=48
8d\L
8B-\J
4B-\
=49
4B-\
4B-\
=50
4F\
4B-\
=51
4B-\
4F\
=52
4F\
4F\
=53
4D\
4F\
=54
8G\L
8F\J
4F\
=55
4F\
4F\
=56
4D\
4F\
=57
4B-\
8B-\L
8F\J
=58
8B-\L
8F\J
4F\
=59
4F\
4r
=60
4F\
4F\
=61
4F\
4F\
=62:|!
8B-\L
8F\J
4F\
=63
4F\
4F\
=64
4F\
4F\
=65
4F\
4F\
=66
*M3/4
4F\
4F\
4r
=67
!!pagebreak:default
*M2/4
4F\
4F\
=68
4F\
4d\
=
*-
